X: 16
T: The Friendly Beasts v.2
P: piffero primo c0017
O: English 12th centurn
%R: waltz
F: http://ancients.sudburymuster.org/mus/col/pdf/carolsF.pdf
Z: 2020 John Chambers <jc:trillian.mit.edu>
M: 3/4
L: 1/8
K: G
% - - - - - - - - - -
[|\
G2E2EF | G2GFED | C2A,2D2 | B,4D2 | G2G4 | G2C4 | F2G2A2 | G2F2E2 ||
DEFGA2 | E3FG2 | E2C2B,^C | D2E2F2 | G4E2 | G2F2E2 | E2c2c2 | B6 |]
%% - - - - - - - - - -


